X: 3484
T: Bibbimbob, The
R: jig
M: 6/8
K: Dmajor
D|:{E}FAA AGF|ABd (fgf)|~f2d ~g2e|fdB {G}A2G|
FDD GEE|Adc deg|~f2d ged|1 cde d2D:|2 cde d2A||
|:{A}~B3 Bcd|cAc g2e|fdd gbb|afd edg|
fdB AFG|Adc deg|~f2d ged|1 cde d2A:|2 cde d2D||

